icon-themes/breeze_svg/cmd/32/beziercutline.svg

<svg xmlns="http://www.w3.org/2000/svg" viewBox="0 0 32 32">
 <path 
     style="fill:#4d4d4d" 
     d="M 13.5 6 L 13.5 8 L 4 8 L 4 9 L 13.5 9 L 13.5 11 L 18.5 11 L 18.5 9 L 28 9 L 28 8 L 18.5 8 L 18.5 6 L 13.5 6 z M 14.5 7 L 17.5 7 L 17.5 10 L 14.5 10 L 14.5 7 z M 4 21 L 4 26 L 9 26 L 9 24 L 14 24 L 14 23 L 9 23 L 9 21 L 4 21 z M 23 21 L 23 23 L 18 23 L 18 24 L 23 24 L 23 26 L 28 26 L 28 21 L 23 21 z M 5 22 L 8 22 L 8 25 L 5 25 L 5 22 z M 24 22 L 27 22 L 27 25 L 24 25 L 24 22 z "
     />
 <path 
     style="fill:#1d99f3" 
     d="M 12 15 L 16 19 L 20 15 L 12 15 z "
     />
</svg>

<svg viewBox="0 0 32 32" xmlns="http://www.w3.org/2000/svg"><path d="m13.5 6v2h-9.5v1h9.5v2h5v-2h9.5v-1h-9.5v-2zm1 1h3v3h-3zm-10.5 14v5h5v-2h5v-1h-5v-2zm19 0v2h-5v1h5v2h5v-5zm-18 1h3v3h-3zm19 0h3v3h-3z" fill="#4d4d4d"/><path d="m12 15 4 4 4-4z" fill="#1d99f3"/></svg>
